public/img/wm-heading-vector.svg

<svg viewBox="0 0 442 23" fill="none" xmlns="http://www.w3.org/2000/svg">
<path fill-rule="evenodd" clip-rule="evenodd" d="M20.5797 6.22609C10.5703 6.86172 4.60729 7.43379 3.64894 8.06942C1.30633 9.46782 5.99155 10.167 20.7926 10.2306C20.8991 10.2306 405.195 5.01836 405.301 5.01836C422.658 4.57342 424.042 4.00135 424.042 2.92077C424.042 1.52238 419.357 0.568927 409.348 0.123982C396.144 -0.575217 94.5851 1.71307 20.5797 6.22609ZM411.797 9.40426C407.112 9.53139 102.145 13.7266 94.4786 14.108C0.560936 18.2396 -6.67987 18.8752 3.43598 21.9263C8.33418 23.3882 17.5982 23.3882 57.7421 21.7356C154.535 17.8582 430.112 17.4133 439.802 15.3157C444.274 14.2986 444.913 8.70506 411.797 9.40426Z" fill="url(#paint0_linear_1850_37739)"/>
<defs>
<linearGradient id="paint0_linear_1850_37739" x1="396.224" y1="23" x2="181.297" y2="-159.554" gradientUnits="userSpaceOnUse">
<stop offset="0.120192" stop-color="#7F76B2"/>
<stop offset="0.298077" stop-color="#F69656"/>
<stop offset="0.591346" stop-color="#F2797F"/>
<stop offset="0.903846" stop-color="#9CD6CB"/>
</linearGradient>
</defs>
</svg>

<svg xmlns="http://www.w3.org/2000/svg" fill="none" viewBox="0 0 442 23"><path fill="url(#a)" fill-rule="evenodd" d="M20.58 6.226C10.57 6.862 4.607 7.434 3.649 8.07c-2.343 1.399 2.343 2.098 17.144 2.162.106 0 384.402-5.213 384.508-5.213 17.357-.445 18.741-1.017 18.741-2.097 0-1.399-4.685-2.352-14.694-2.797-13.204-.7-314.763 1.59-388.768 6.102Zm391.217 3.178c-4.685.127-309.652 4.323-317.318 4.704C.56 18.24-6.68 18.875 3.436 21.926c4.898 1.462 14.162 1.462 54.306-.19 96.793-3.878 372.37-4.323 382.06-6.42 4.472-1.017 5.111-6.61-28.005-5.912Z" clip-rule="evenodd"/><defs><linearGradient id="a" x1="396.224" x2="181.297" y1="23" y2="-159.554" gradientUnits="userSpaceOnUse"><stop offset=".12" stop-color="#7F76B2"/><stop offset=".298" stop-color="#F69656"/><stop offset=".591" stop-color="#F2797F"/><stop offset=".904" stop-color="#9CD6CB"/></linearGradient></defs></svg>
